www/assets/icons/border_inner.svg

<svg xmlns="http://www.w3.org/2000/svg" width="24" height="24" viewBox="0 0 24 24" fill='currentColor'><path d="M3 21h2v-2H3zm4 0h2v-2H7zM5 7H3v2h2zM3 17h2v-2H3zM9 3H7v2h2zM5 3H3v2h2zm12 0h-2v2h2zm2 6h2V7h-2zm0-6v2h2V3zm-4 18h2v-2h-2zM13 3h-2v8H3v2h8v8h2v-8h8v-2h-8zm6 18h2v-2h-2zm0-4h2v-2h-2z"/></svg>

<svg width="24" height="24" viewBox="0 0 24 24" xmlns="http://www.w3.org/2000/svg" fill='currentColor'><path d="M3 21H5V19H3V21ZM7 21H9V19H7V21ZM5 7H3V9H5V7ZM3 17H5V15H3V17ZM9 3H7V5H9V3ZM5 3H3V5H5V3ZM17 3H15V5H17V3ZM19 9H21V7H19V9ZM19 3V5H21V3H19ZM15 21H17V19H15V21ZM13 3H11V11H3V13H11V21H13V13H21V11H13V3ZM19 21H21V19H19V21ZM19 17H21V15H19V17Z"/></svg>
